X:1
T:Abingdon, LM
T:Abingdon, LM
T:Joseph Funk, 1832
T:Public Domain Courtesy of the Cyber Hymnal™
C:Joseph Funk, 1832
Z:Public Domain
Z:Courtesy of the Cyber Hymnal™
%%score ( 1 2 ) ( 3 4 )
L:1/8
M:3/2
K:A
V:1 treble 
V:2 treble 
V:3 bass 
V:4 bass 
V:1
 E4 | [EA]2 (AB) [EA]4 F4 | E2 (EF) [EG]4 [Ac]4 | [Ae]2 [Fd]2 [Ec]4 [GB]4 | %4
 [EA]2 [Ac]2 !fermata![GB]4 [Ec]4 | [Ge]2 ([Af][Bd]) [Ac]4 [FB]4 | [EA]2 F2 E4 E3 D | %7
 C2 E2 [EA]4 [Ac]4 | [GB]2 [EB]2 !fermata![EA]4 |] %9
V:2
 E4 | x2 E2 x3 F4 x | E2 x10 | x12 | x12 | x12 | x2 F2 E4 E3 D | C2 E2 x8 | x8 |] %9
V:3
 [E,A,]4 | [A,C]2 ([A,C][E,E]) [A,,E]4 [F,C]4 | [B,E]2 ([B,E][F,C]) [E,B,]4 [C,A,]4 | %3
 [E,C]2 D2 [A,E]4 [E,E]4 | [A,C]2 F2 !fermata![E,E]4 A,4 | [E,B,]2 ([A,C][G,D]) [A,C]4 [B,F]4 | %6
 [A,E]2 C2 [E,B,]4 [A,C]3 B, | [A,C]2 B,2 [A,E]4 [C,F]4 | [E,E]2 [E,E]2 !fermata![A,,C]4 |] %9
V:4
 x4 | x12 | x12 | x2 (F,G,) x8 | x2 (C,D,) x3 A,4 x | x12 | x2 (C,D,) x6 B, x | x2 B,2 x8 | x8 |] %9

